icon/gr/norton.svg

<svg xmlns="http://www.w3.org/2000/svg" viewBox="0 0 24 24" height="1em" width="1em">
  <path fill="#E0B02F" d="M21.9101215,0.816194332 L22.7068826,0.816194332 L22.7068826,1.61295547 L21.9101215,1.61295547 L21.9101215,0.816194332 Z M21.9101215,1.61295547 L20.4331984,1.61295547 L20.4331984,2.4097166 L21.9101215,2.4097166 L21.9101215,1.61295547 Z M20.4331984,2.4097166 L20.4331984,3.96437247 L19.6947368,3.96437247 L19.6947368,2.4097166 L20.4331984,2.4097166 Z M20.4331984,3.96437247 L21.1910931,3.96437247 L21.1910931,4.72226721 L20.4331984,4.72226721 L20.4331984,3.96437247 Z M21.1910931,3.96437247 L21.1910931,3.21619433 L22.0267206,3.21619433 L22.0267206,3.96437247 L21.1910931,3.96437247 Z M20.4331984,4.72226721 L20.4331984,6.33522267 L19.7821862,6.33522267 L19.7821862,6.96680162 L19.0923077,6.96680162 L19.0923077,7.88987854 L18.4995951,7.88987854 L18.4995951,8.67692308 L17.7417004,8.67692308 L17.7417004,7.89959514 L16.9838057,7.89959514 L16.9740891,8.67692308 L17.7417004,8.67692308 L17.7417004,9.50283401 L16.9838057,9.50283401 L16.9935223,10.4064777 L16.3425101,10.4064777 L16.3522267,11.1643725 L15.7497976,11.1643725 L15.740081,12.0194332 C14.6042656,13.6541793 13.8165786,15.3703291 13.1068826,17.0817814 C13.0166656,17.2993424 12.9843157,17.4767392 12.8736842,17.6064777 C12.6350495,17.886327 12.2792569,17.974147 11.9894737,17.9659919 C11.4470717,17.9507255 10.9697158,17.6983044 10.7165992,17.1109312 C9.86728944,15.1400551 9.44710048,13.7603465 7.11174089,11.1740891 C6.73552723,10.7574572 6.82323501,10.2253563 7.12145749,10.0566802 C7.40843204,9.89436507 7.80877956,10.0107768 8.2582996,10.2607287 C9.51609859,10.9601153 10.2158747,11.6755026 11.7076923,13.6615385 C12.2511882,12.3496564 13.19015,10.5765708 14.3603239,8.65748988 L14.9044534,8.65748988 L14.9044534,7.89959514 L15.4194332,7.89959514 L15.4194332,7.151417 L16.1773279,7.151417 L16.1773279,5.9562753 L16.9935223,5.9562753 L16.9838057,6.71417004 L17.7417004,6.71417004 L17.7417004,5.9562753 L16.9935223,5.9562753 L16.9935223,5.27611336 L17.6736842,5.27611336 L17.6736842,4.72226721 L18.9271255,4.72226721 L18.9271255,5.49959514 L19.6947368,5.49959514 L19.6947368,4.72226721 L20.4331984,4.72226721 Z M18.9271255,4.72226721 L18.9271255,3.96437247 L19.6947368,3.96437247 L19.6947368,4.72226721 L18.9271255,4.72226721 Z M18.9271255,3.96437247 L18.1595142,3.96437247 L18.1595142,3.23562753 L18.9271255,3.23562753 L18.9271255,3.96437247 Z M20.4331999,2.41353172 L21.1897089,2.41353172 L21.1897089,3.21168583 L20.4331999,3.21168583 L20.4331999,2.41353172 Z M22.7027248,1.61537762 L23.5216979,1.61537762 L23.5216979,2.41353172 L22.7027248,2.41353172 L22.7027248,1.61537762 Z M16.5465587,4.54360314 L16.5465587,5.28582996 L15.6137652,5.28582996 L15.6137652,6.52955466 L14.6809717,6.52955466 L14.6809717,7.26441847 C13.6908876,6.74537522 12.5637461,6.45182186 11.3676113,6.45182186 C7.42126355,6.45182186 4.21619433,9.64716515 4.21619433,13.5935223 C4.21619433,17.5398576 7.42126355,20.7352227 11.3676113,20.7352227 C15.3139591,20.7352227 18.5093117,17.5398576 18.5093117,13.5935223 C18.5093117,12.3895534 18.2119011,11.2554858 17.6864896,10.2607287 L18.4121457,10.2607287 L18.4121457,9.32793522 L19.0340081,9.32793522 L19.0340081,8.3951417 L19.6558704,8.3951417 L19.6558704,7.61781377 L19.9265337,7.61781377 C21.1151026,9.30906076 21.8129555,11.3700091 21.8129555,13.5935223 C21.8129555,19.3395646 17.1525368,24 11.4064777,24 C5.66041864,24 1,19.3395646 1,13.5935223 C1,7.84746131 5.66041864,3.18704453 11.4064777,3.18704453 C13.2757551,3.18704453 15.0301395,3.68025475 16.5465587,4.54360314 L16.5465587,4.54360314 Z M22.7027248,0 L23.5216979,0 L23.5216979,0.817223514 L22.7027248,0.817223514 L22.7027248,0 Z"/>
</svg>

<svg xmlns="http://www.w3.org/2000/svg" width="24" height="24"><path fill="#E0B02F" d="M21.91.816h.797v.797h-.797V.816Zm0 .797h-1.477v.797h1.477v-.797Zm-1.477.797v1.554h-.738V2.41h.738Zm0 1.554h.758v.758h-.758v-.758Zm.758 0v-.748h.836v.748h-.836Zm-.758.758v1.613h-.65v.632h-.69v.923H18.5v.787h-.758V7.9h-.758l-.01.777h.768v.826h-.758l.01.903h-.651l.01.758h-.603l-.01.855c-1.136 1.635-1.923 3.351-2.633 5.063-.09.217-.123.395-.233.524-.239.28-.595.368-.885.36-.542-.015-1.02-.268-1.272-.855-.85-1.97-1.27-3.35-3.605-5.937-.376-.417-.289-.949.01-1.117.286-.163.687-.046 1.136.204 1.258.7 1.958 1.415 3.45 3.4.543-1.311 1.482-3.084 2.652-5.004h.544V7.9h.515V7.15h.758V5.956h.817l-.01.758h.758v-.758h-.748v-.68h.68v-.554h1.253V5.5h.768v-.778h.738Zm-1.506 0v-.758h.768v.758h-.768Zm0-.758h-.767v-.728h.767v.728Zm1.506-1.55h.757v.798h-.757v-.798Zm2.27-.799h.819v.799h-.82v-.799Zm-6.156 2.929v.742h-.933V6.53h-.933v.734a7.115 7.115 0 0 0-3.313-.812c-3.947 0-7.152 3.195-7.152 7.142 0 3.946 3.205 7.141 7.152 7.141a7.139 7.139 0 0 0 7.141-7.141 7.115 7.115 0 0 0-.823-3.333h.726v-.933h.622v-.933h.622v-.777h.27a10.357 10.357 0 0 1 1.887 5.976C21.813 19.34 17.153 24 11.406 24 5.66 24 1 19.34 1 13.594 1 7.847 5.66 3.187 11.406 3.187c1.87 0 3.624.493 5.14 1.357ZM22.703 0h.819v.817h-.82V0Z"/></svg>
